X: 96
T:Silver And Gold Two-Step
M:4/4
L:1/8
K:D
fg|a4 f2d2|A4 d2f2|a2g4f2|g4 e2f2|
g4 e2c2|A4 c2e2|b2a4^g2|a4 f2g2|
a4 f2d2|A4 d2f2|a2g4f2|g4 e2f2|
g4 e2c2|A4 c2e2|d4-dedc|d6:|
|:FG|A2f2 A2f2|A2f2 f2g2|f2e4-e^d|e4 E3F|
G2e2 G2e2|G2e2 e2f2|e2d4-dc|d4 F2G2|
A2f2 A2f2|A2f2 f2g2|a4 g2e2|B4 c2d2|
f2e4c2|A4 c2e2|d4-dedc|d6:|
